Printex-remake/img/icons/catalog_colored/11.svg

<svg width="98" height="98" viewBox="0 0 98 98" fill="none" xmlns="http://www.w3.org/2000/svg">
<rect width="49.5248" height="27.4876" transform="matrix(0.866041 -0.499972 0.866041 0.499972 12.9775 75.6287)" fill="#E5D795"/>
<path d="M9.12811 68.7752L38.3909 51.8816L62.1963 65.6247L32.9335 82.5183L17.1536 74.7109L9.12811 68.7752Z" fill="#E5D795"/>
<path d="M48 95.5L90.5 71L71.1808 60.4183C71.1328 60.392 71.0865 60.3662 71.0398 60.3378C70.5682 60.0509 67.8403 58.2851 67.8404 55.8215L67.8413 7.03411C67.8414 1.95599 64.9471 1.81666 63.5 2.38177L20.5 26.8818L22 27.3818C24.8 27.7818 25.8333 31.2135 26 32.8793V75.8139C26 78.4357 26.7089 80.5332 27.4375 81.9965C28.2833 83.6953 29.8314 84.8683 31.4693 85.8267L48 95.5Z" fill="#FFEFA6"/>
<path d="M26 32.8791V75.8137C26 78.4356 26.7089 80.5331 27.4375 81.9964C28.2833 83.6951 29.8314 84.8681 31.4693 85.8266L48 95.5L90.5 71L71.1808 60.4181C71.1328 60.3918 71.0865 60.3661 71.0398 60.3376C70.5683 60.0508 67.8403 58.285 67.8404 55.8213L67.8413 7.03394" stroke="black" stroke-linejoin="bevel"/>
<path d="M21 75.9346V33" stroke="black" stroke-linejoin="bevel"/>
<path d="M20 27.0339L63 2.53394" stroke="black" stroke-linejoin="bevel"/>
<path d="M26 32.8225C26.0001 34.7979 24.4331 35.5986 22.5001 34.6108C20.5671 33.623 19.0001 31.2209 19 29.2454C18.9999 27.2699 20.5669 26.4693 22.4999 27.457C24.4329 28.4448 25.9999 30.847 26 32.8225Z" stroke="black" stroke-linejoin="bevel"/>
<path d="M16 73.6701C16.0001 75.6456 14.4331 76.4463 12.5001 75.4585C10.5671 74.4707 9.00007 72.0685 9 70.0931C8.99993 68.1176 10.5669 67.3169 12.4999 68.3047C14.4329 69.2925 15.9999 71.6947 16 73.6701Z" fill="#E5D795"/>
<path d="M24 31.9282C24 32.9159 23.3285 33.3163 22.5001 32.8224C21.6716 32.3285 21 31.1274 21 30.1397C21 29.1519 21.6715 28.7516 22.4999 29.2455C23.3284 29.7394 24 30.9405 24 31.9282Z" stroke="black" stroke-linejoin="bevel"/>
<path d="M68 7.53394C67.9999 5.44442 67.4774 3.53172 66 2.53403C65.0043 1.86164 64 1.78337 63 2.53414" stroke="black" stroke-linejoin="bevel"/>
<path d="M63.8772 49.1946L53.4112 34.8816L46.6656 51.895L42.467 49.4709L32 67.6002L63.8772 49.1946Z" fill="white"/>
<path d="M63.8772 49.1946L53.4112 34.8816L46.6656 51.895L42.467 49.4709L32 67.6002" stroke="black"/>
<circle r="4.41546" transform="matrix(0.86601 -0.500028 -3.18907e-05 1 37.8891 45.1588)" fill="white"/>
<path d="M37.9914 49.6583C35.8792 50.8779 34.1669 49.8926 34.167 47.4576C34.1671 45.0226 35.8795 42.0599 37.9917 40.8403" stroke="black"/>
</svg>

<svg width="98" height="98" fill="none" xmlns="http://www.w3.org/2000/svg"><path fill="#E5D795" d="M12.977 75.629l42.891-24.761L79.674 64.61l-42.89 24.76z"/><path d="M9.128 68.775l29.263-16.893 23.805 13.743-29.262 16.893-15.78-7.807-8.026-5.936z" fill="#E5D795"/><path d="M48 95.5L90.5 71 71.18 60.418a3.56 3.56 0 01-.14-.08c-.472-.287-3.2-2.053-3.2-4.517l.001-48.787c0-5.078-2.894-5.217-4.341-4.652l-43 24.5 1.5.5c2.8.4 3.833 3.831 4 5.497v42.935c0 2.622.709 4.72 1.438 6.183.845 1.698 2.393 2.871 4.031 3.83L48 95.5z" fill="#FFEFA6"/><path d="M26 32.88v42.934c0 2.622.709 4.72 1.438 6.182.845 1.7 2.393 2.872 4.031 3.83L48 95.5 90.5 71 71.18 60.418a3.44 3.44 0 01-.14-.08c-.472-.287-3.2-2.053-3.2-4.517l.001-48.787M21 75.935V33m-1-5.966l43-24.5" stroke="#000" stroke-linejoin="bevel"/><path d="M26 32.822c0 1.976-1.567 2.777-3.5 1.789-1.933-.988-3.5-3.39-3.5-5.366 0-1.975 1.567-2.776 3.5-1.788 1.933.988 3.5 3.39 3.5 5.365z" stroke="#000" stroke-linejoin="bevel"/><path d="M16 73.67c0 1.976-1.567 2.776-3.5 1.788-1.933-.987-3.5-3.39-3.5-5.365s1.567-2.776 3.5-1.788c1.933.987 3.5 3.39 3.5 5.365z" fill="#E5D795"/><path d="M24 31.928c0 .988-.672 1.388-1.5.894-.828-.494-1.5-1.695-1.5-2.682 0-.988.672-1.388 1.5-.895.828.494 1.5 1.695 1.5 2.683zM68 7.534c0-2.09-.523-4.002-2-5-.996-.672-2-.75-3 0" stroke="#000" stroke-linejoin="bevel"/><path d="M63.877 49.195L53.411 34.882l-6.745 17.013-4.199-2.424L32 67.6l31.877-18.406z" fill="#fff"/><path d="M63.877 49.195L53.411 34.882l-6.745 17.013-4.199-2.424L32 67.6" stroke="#000"/><circle r="4.415" transform="matrix(.86601 -.50003 -.00003 1 37.89 45.159)" fill="#fff"/><path d="M37.991 49.658c-2.112 1.22-3.824.235-3.824-2.2s1.712-5.398 3.825-6.618" stroke="#000"/></svg>
